src/static/logos/kinvey.svg

<?xml version="1.0" encoding="UTF-8" standalone="no"?>
<svg width="256px" height="180px" viewBox="0 0 256 180" version="1.1" xmlns="http://www.w3.org/2000/svg" xmlns:xlink="http://www.w3.org/1999/xlink" preserveAspectRatio="xMidYMid">
    <g>
        <path d="M112.474514,179.503543 C91.5922286,179.503543 72.6436571,167.985371 63.0262857,149.443657 L62.8077714,149.050514 C61.7408,149.111771 60.6692571,149.142857 59.5968,149.142857 C26.7346286,149.142857 0,122.402743 0,89.5405714 C0,56.6784 26.7346286,29.9428571 59.5968,29.9428571 C72.1956571,29.9428571 84.2404571,33.8294857 94.4329143,41.1812571 C94.4813714,41.2169143 96.2075429,42.6020571 96.7908571,43.2246857 L99.1835429,45.7782857 C106.596571,53.7490286 128.564114,77.9090286 128.564114,77.9090286 L139.223771,89.3888 L164.6912,116.362971 L165.805714,117.613714 C173.5936,126.071771 184.6848,130.9312 196.2112,130.9312 C219.032686,130.9312 237.601829,112.362971 237.601829,89.5405714 C237.601829,66.7190857 219.032686,48.1490286 196.2112,48.1490286 C186.474971,48.1490286 177.013943,51.6050286 169.570743,57.8770286 L164.642743,64.0292571 L175.619657,75.0253714 L143.803429,73.1684571 L141.855086,41.2041143 L151.755886,51.1305143 L156.610743,45.0898286 C162.450286,39.8573714 168.904229,36.0301714 175.977143,33.4811429 C168.782629,23.2365714 157.124571,17.1702857 144.479086,17.1702857 C131.771429,17.1702857 118.680686,24.4342857 111.136,35.6790857 L110.226286,37.0368 L98.3387429,24.0685714 L98.9961143,23.2100571 C103.1488,17.8185143 108.274286,13.0514286 113.821257,9.42262857 C123.264914,3.25942857 133.867886,0 144.479086,0 C165.391543,0 184.260571,11.4697143 193.914514,29.9904 C194.676114,29.9602286 195.438629,29.9428571 196.2112,29.9428571 C229.073371,29.9428571 255.812571,56.6784 255.812571,89.5405714 C255.812571,122.402743 229.073371,149.142857 196.2112,149.142857 C183.127771,149.142857 170.189714,144.724114 159.778743,136.701257 L89.8962286,61.4491429 L86.2848,57.9117714 C78.8973714,51.6370286 69.3933714,48.1490286 59.5968,48.1490286 C36.7753143,48.1490286 18.2098286,66.7190857 18.2098286,89.5405714 C18.2098286,112.362971 36.7753143,130.9312 59.5968,130.9312 C68.5430857,130.9312 77.3732571,127.968 84.5366857,122.573714 L89.9702857,117.665829 L91.1826286,116.0896 L80.4141714,105.298286 L112.226743,107.150629 L114.1824,139.120457 L104.059429,128.992 L102.9184,130.464914 C96.6372571,137.080686 88.9426286,142.165029 80.5056,145.333943 C87.6699429,156.015543 99.5017143,162.343314 112.474514,162.343314 C124.245029,162.343314 136.939886,155.5968 144.823771,145.152 L145.751771,143.917714 L157.522286,156.765257 L156.807314,157.627429 C145.632914,171.119543 128.647314,179.503543 112.474514,179.503543" fill="#DA5024"></path>
    </g>
</svg>

<svg width="256" height="180" xmlns="http://www.w3.org/2000/svg" preserveAspectRatio="xMidYMid"><path d="M112.475 179.504c-20.883 0-39.831-11.519-49.449-30.06l-.218-.393a56.041 56.041 0 01-3.211.092C26.735 149.143 0 122.403 0 89.54s26.735-59.598 59.597-59.598c12.599 0 24.643 3.886 34.836 11.238.048.036 1.775 1.421 2.358 2.044l2.393 2.553c7.413 7.971 29.38 32.131 29.38 32.131l10.66 11.48 25.467 26.974 1.115 1.25c7.788 8.459 18.879 13.318 30.405 13.318 22.822 0 41.39-18.568 41.39-41.39s-18.568-41.392-41.39-41.392a41.401 41.401 0 00-26.64 9.728l-4.928 6.152 10.977 10.996-31.817-1.857-1.948-31.964 9.9 9.927 4.856-6.041c5.84-5.233 12.293-9.06 19.366-11.609-7.194-10.244-18.852-16.31-31.498-16.31-12.708 0-25.798 7.263-33.343 18.508l-.91 1.358L98.34 24.069l.657-.859c4.153-5.391 9.278-10.159 14.825-13.787C123.265 3.259 133.868 0 144.48 0c20.913 0 39.782 11.47 49.436 29.99.761-.03 1.524-.047 2.296-.047 32.862 0 59.602 26.735 59.602 59.598 0 32.862-26.74 59.602-59.602 59.602-13.083 0-26.021-4.419-36.432-12.442L89.896 61.45l-3.611-3.537c-7.388-6.275-16.892-9.763-26.688-9.763-22.822 0-41.387 18.57-41.387 41.392 0 22.822 18.565 41.39 41.387 41.39 8.946 0 17.776-2.963 24.94-8.357l5.433-4.908 1.213-1.576-10.769-10.792 31.813 1.853 1.955 31.97-10.123-10.129-1.14 1.473a60.096 60.096 0 01-22.413 14.869c7.164 10.682 18.996 17.01 31.969 17.01 11.77 0 24.465-6.747 32.349-17.192l.928-1.234 11.77 12.847-.715.862c-11.174 13.493-28.16 21.877-44.332 21.877" fill="#DA5024"/></svg>
